contributed-vectors/nextcloud_cookbook.svg

<svg xmlns="http://www.w3.org/2000/svg" viewBox="0 0 192 192"><rect width="152" height="152" x="20" y="20" rx="10" style="fill:#9abeff;stroke:none;opacity:1;stroke-linecap:round;stroke-linejoin:round;isolation:isolate"/><path d="M64 60c-2.216 0-4 1.784-4 4v28c0 4.432 3.568 8 8 8v28c0 2.216 1.784 4 4 4h8c2.216 0 4-1.784 4-4v-28c4.432 0 8-3.568 8-8V64c0-2.216-1.784-4-4-4s-4 1.784-4 4v18c0 1.108-.892 2-2 2s-2-.892-2-2V64c0-2.216-1.784-4-4-4s-4 1.784-4 4v18c0 1.108-.892 2-2 2s-2-.892-2-2V64c0-2.216-1.784-4-4-4z" style="opacity:1;vector-effect:none;fill:#fff;fill-opacity:1;fill-rule:evenodd;stroke:none;paint-order:stroke fill markers"/><rect width="32" height="52" x="100" y="60" ry="16" style="opacity:1;vector-effect:none;fill:#fff;fill-opacity:1;fill-rule:evenodd;stroke:none;paint-order:stroke fill markers"/><path d="M100 96v16h16v16c0 4 4 4 4 4h8s4 0 4-4V64c0-4-4-4-4-4h-12z" style="fill:#fff;stroke:none;stroke-width:1px;stroke-linecap:butt;stroke-linejoin:miter;stroke-opacity:1"/></svg>

<?xml version="1.0" encoding="UTF-8" standalone="no"?>
<svg
   xmlns:dc="http://purl.org/dc/elements/1.1/"
   xmlns:cc="http://creativecommons.org/ns#"
   xmlns:rdf="http://www.w3.org/1999/02/22-rdf-syntax-ns#"
   xmlns:svg="http://www.w3.org/2000/svg"
   xmlns="http://www.w3.org/2000/svg"
   xmlns:sodipodi="http://sodipodi.sourceforge.net/DTD/sodipodi-0.dtd"
   xmlns:inkscape="http://www.inkscape.org/namespaces/inkscape"
   viewBox="0 0 192 192"
   version="1.1"
   id="svg16"
   sodipodi:docname="nextcloud_cookbook.svg"
   inkscape:version="0.92.4 (5da689c313, 2019-01-14)">
  <metadata
     id="metadata20">
    <rdf:RDF>
      <cc:Work
         rdf:about="">
        <dc:format>image/svg+xml</dc:format>
        <dc:type
           rdf:resource="http://purl.org/dc/dcmitype/StillImage" />
        <dc:title></dc:title>
      </cc:Work>
    </rdf:RDF>
  </metadata>
  <sodipodi:namedview
     pagecolor="#ffffff"
     bordercolor="#666666"
     borderopacity="1"
     objecttolerance="10"
     gridtolerance="10"
     guidetolerance="10"
     inkscape:pageopacity="0"
     inkscape:pageshadow="2"
     inkscape:window-width="1920"
     inkscape:window-height="1017"
     id="namedview18"
     showgrid="true"
     inkscape:zoom="3.4766083"
     inkscape:cx="62.388527"
     inkscape:cy="104.19341"
     inkscape:window-x="-8"
     inkscape:window-y="-8"
     inkscape:window-maximized="1"
     inkscape:current-layer="svg16">
    <inkscape:grid
       type="xygrid"
       id="grid827"
       spacingx="4"
       spacingy="4" />
  </sodipodi:namedview>
  <defs
     id="defs4">
    <style
       id="style2">.a{fill:none;stroke:#b1b5bd;stroke-linecap:round;stroke-linejoin:round;isolation:isolate;opacity:0.63;}</style>
  </defs>
  <rect
     class="a"
     x="20"
     y="20"
     width="152"
     height="152"
     rx="10"
     id="rect6"
     style="fill:#9abeff;stroke:none;opacity:1" />
  <path
     style="opacity:1;vector-effect:none;fill:#ffffff;fill-opacity:1;fill-rule:evenodd;stroke:none;paint-order:stroke fill markers"
     d="M 64 60 C 61.784 60 60 61.784 60 64 L 60 80 L 60 88 L 60 92 C 60 96.432 63.568 100 68 100 L 68 128 C 68 130.216 69.784 132 72 132 L 80 132 C 82.216 132 84 130.216 84 128 L 84 100 C 88.432 100 92 96.432 92 92 L 92 88 L 92 80 L 92 64 C 92 61.784 90.216 60 88 60 C 85.784 60 84 61.784 84 64 L 84 78 L 84 80 L 84 82 C 84 83.108 83.108 84 82 84 C 80.892 84 80 83.108 80 82 L 80 80 L 80 78 L 80 64 C 80 61.784 78.216 60 76 60 C 73.784 60 72 61.784 72 64 L 72 78 L 72 80 L 72 82 C 72 83.108 71.108 84 70 84 C 68.892 84 68 83.108 68 82 L 68 80 L 68 78 L 68 64 C 68 61.784 66.216 60 64 60 z "
     id="rect818" />
  <rect
     style="opacity:1;vector-effect:none;fill:#ffffff;fill-opacity:1;fill-rule:evenodd;stroke:none;paint-order:stroke fill markers"
     id="rect828"
     width="32"
     height="52"
     x="100"
     y="60"
     ry="16" />
  <path
     style="fill:#ffffff;stroke:none;stroke-width:1px;stroke-linecap:butt;stroke-linejoin:miter;stroke-opacity:1"
     d="m 100,96 v 16 h 16 c 0,0 0,10.66667 0,16 0,4 4,4 4,4 h 8 c 0,0 4,0 4,-4 0,-21.33333 0,-42.666667 0,-64 0,-4 -4,-4 -4,-4 h -12 z"
     id="path832"
     inkscape:connector-curvature="0"
     sodipodi:nodetypes="cccsccssccc" />
</svg>
